48x48/apps/distributor-logo-solus.svg

<svg xmlns="http://www.w3.org/2000/svg" width="48" height="48" version="1">
 <path style="opacity:0.2" d="M 16.8125,3.75 C 16.502079,4.7639844 16.16824,5.7695008 15.828125,6.7734375 A 20.000237,20.000237 0 0 0 4,25 20.000237,20.000237 0 0 0 4.8886719,30.832031 C 4.6954978,31.17901 4.507496,31.529273 4.3125,31.875 L 4,32.5 4.4824219,32.748047 C 4.8065196,32.898513 5.2422418,33.012703 5.7519531,33.125 A 20.000237,20.000237 0 0 0 24,45 20.000237,20.000237 0 0 0 43.570312,29.099609 C 44.127159,28.347231 44.575783,27.585884 44.9375,26.875 L 45.25,26.25 44.625,25.625 C 44.428791,25.418374 44.216112,25.223841 43.998047,25.03125 A 20.000237,20.000237 0 0 0 44,25 20.000237,20.000237 0 0 0 24,5 20.000237,20.000237 0 0 0 18.470703,5.7890625 C 17.689332,4.6428903 17.06406,3.825012 16.8125,3.75 Z"/>
 <path style="fill:#4c5263" d="m 44.000477,24.000263 c 0,2.196572 -0.354105,4.310439 -1.008344,6.28763 -2.635709,7.965439 -9.895522,8.687896 -18.744776,8.687895 -6.666017,0 -12.817464,1.763541 -16.4517,-3.250393 -2.3878211,-3.294332 -3.7956532,-7.345324 -3.7956532,-11.725132 0,-11.045825 8.9544112,-20.0002359 20.0002362,-20.0002363 11.045826,0 20.000237,8.9544103 20.000237,20.0002363 z"/>
 <path style="fill:#4c5263;fill-rule:evenodd" d="M 16.812656,2.7499995 C 13.803001,12.580993 9.354026,21.936745 4.312503,30.875346 L 4,31.500354 4.481746,31.748607 c 0.42292,0.196346 0.979684,0.328379 1.733418,0.479131 0.753737,0.150751 1.680914,0.301003 2.722811,0.449849 2.0838,0.297659 4.624493,0.588632 7.089319,0.844728 4.929656,0.512163 9.556999,0.885636 9.556999,0.885636 l 0.787362,0.06347 -0.06042,-0.787978 c 0,0 -1.220937,-15.884531 -1.448993,-18.494477 l -0.01221,-0.140994 -0.06837,-0.124513 C 23.336723,12.615968 17.724071,3.0217715 16.812656,2.7499995 Z m 0.625005,2.8125337 c 2.133782,3.7537513 3.977164,5.8820608 6.250075,10.0001198 0.226787,2.624442 1.119693,16.174828 1.216009,17.426814 -0.674247,-0.0551 -4.233755,-0.341444 -8.73729,-0.809323 C 13.711297,31.925046 11.182492,31.635449 9.129017,31.342103 8.102283,31.195445 7.193944,31.047255 6.480061,30.904472 6.127835,30.834032 6.120096,30.629217 5.875022,30.562843 9.557138,24.056965 15.406021,13.85397 17.437661,5.5625332 Z"/>
 <path style="fill:#4c5263;fill-rule:evenodd" d="m 27.437781,17.437675 -0.321484,1.406118 c 3.14022,2.100471 6.132826,3.934382 8.076268,5.88447 1.943438,1.950093 2.854146,3.869181 2.115503,6.556463 l -0.344242,1.254297 1.223768,-0.440662 c 3.823634,-1.375766 5.640443,-4.041689 6.750397,-6.223085 l 0.312504,-0.625007 -0.625008,-0.625008 c -1.8635,-1.962438 -4.741897,-3.263167 -8.081588,-4.447224 -3.339692,-1.184055 -6.977027,-2.226959 -9.106118,-2.740362 z m 3.730076,2.484624 c 1.554206,0.427137 3.247357,0.93294 4.924987,1.527729 3.04398,1.079215 5.925893,2.46689 7.55441,3.966721 -0.931174,1.717179 -2.351285,3.697732 -4.801083,4.928653 0.262659,-2.569371 -0.869486,-4.734741 -2.697786,-6.569298 -1.349544,-1.354162 -3.111892,-2.601609 -4.980528,-3.853805 z"/>
 <circle style="fill:#500000;fill-opacity:0" cx="24.024" cy="23.977" r="20.024"/>
 <path style="fill:#00caff" d="M 42.710938 30.572266 C 38.672798 33.436675 33.903515 35.174944 29.027344 35.923828 C 22.231093 36.88284 15.308447 36.64471 8.4882812 36.123047 C 8.438244 36.241252 8.4056259 36.356758 8.3691406 36.472656 A 20.000237 20.000237 0 0 0 23.802734 43.990234 C 23.97533 43.989673 24.150733 43.992072 24.320312 43.988281 A 20.000237 20.000237 0 0 0 24.898438 43.96875 C 25.172237 43.956273 25.438135 43.937478 25.701172 43.916016 A 20.000237 20.000237 0 0 0 27.179688 43.736328 C 27.273585 43.720679 27.377247 43.710465 27.46875 43.693359 A 20.000237 20.000237 0 0 0 42.794922 30.763672 C 42.765116 30.699837 42.743688 30.636285 42.710938 30.572266 z"/>
 <path style="opacity:0.2;fill-rule:evenodd" d="M 17.4375,6.5634398 C 15.405771,14.854824 9.55706,25.057652 5.875,31.56344 l 3.2539062,0.779297 c 2.0534718,0.293345 4.5839008,0.584777 7.0390628,0.839844 4.503218,0.46788 8.094832,0.825703 8.769531,0.880859 -0.09638,-1.252796 -1.023166,-14.874924 -1.25,-17.5 -2.272911,-4.118059 -4.116218,-6.246249 -6.25,-10.0000002 z M 25.25,17.18844 c 3.012074,6.204892 3.014785,12.343415 1.25,16.875 2.484962,0.015 6.539851,0.293682 10.9375,-1.875 -3.614509,-8.253118 -12.187502,-15 -12.1875,-15 z m 5.9375,3.75 c 1.86918,1.252522 3.650115,2.395497 5,3.75 1.828169,1.83443 2.76244,4.305857 2.5,6.875 2.449511,-1.230796 4.068817,-3.282955 5,-5 -1.628588,-1.499713 -4.456226,-2.983357 -7.5,-4.0625 -1.67833,-0.595036 -3.445275,-1.135253 -5,-1.5625 z m 12.265625,8.619141 c -3.024937,3.601625 -8.485501,5.563883 -14.619141,6.455078 -6.650522,0.966279 -14.545706,0.686287 -21.443359,0.103515 a 20.000237,20.000237 0 0 0 1.0527344,1.441407 c 6.6411446,0.520719 14.1299916,0.728727 20.5839846,-0.208985 5.198488,-0.755318 10.18822,-2.258555 13.554687,-4.998047 a 20.000237,20.000237 0 0 0 0.871094,-2.792968 z"/>
 <path style="fill:#f4f4f7;fill-rule:evenodd" d="m 25.250254,16.187661 c 3.012074,6.204892 3.0148,12.343626 1.250015,16.875211 2.484962,0.015 6.539983,0.29366 10.937632,-1.875022 C 33.823392,22.934732 25.250252,16.187661 25.250254,16.187661 Z"/>
 <path style="fill:#f4f4f7;fill-rule:evenodd" d="M 17.437661,5.5625332 C 15.405932,13.853917 9.557082,24.057055 5.875022,30.562843 l 3.254608,0.779885 c 2.053472,0.293345 4.582276,0.582943 7.037438,0.83801 4.503218,0.46788 8.095984,0.826978 8.770683,0.882134 C 24.841371,31.810076 23.91457,18.187729 23.687736,15.562653 21.414825,11.444594 19.571443,9.3162845 17.437661,5.5625332 Z"/>
 <path style="fill:#f4f4f7;fill-rule:evenodd" d="m 31.187825,19.937706 c 1.86918,1.252522 3.650176,2.395541 5.000061,3.750044 1.828169,1.83443 2.76247,4.30595 2.50003,6.875093 2.449511,-1.230796 4.068877,-3.283024 5.00006,-5.000069 -1.628588,-1.499713 -4.456316,-2.983406 -7.50009,-4.062549 -1.67833,-0.595036 -3.445336,-1.135272 -5.000061,-1.562519 z"/>
 <path style="fill:#f4f4f7;opacity:0.1" d="M 16.8125 2.75 C 16.502079 3.7639844 16.16824 4.7695008 15.828125 5.7734375 A 20.000237 20.000237 0 0 0 4 24 A 20.000237 20.000237 0 0 0 4.0175781 24.332031 A 20.000237 20.000237 0 0 1 15.828125 6.7734375 C 16.16824 5.7695008 16.502079 4.7639844 16.8125 3.75 C 17.06406 3.825012 17.689332 4.6428903 18.470703 5.7890625 A 20.000237 20.000237 0 0 1 24 5 A 20.000237 20.000237 0 0 1 44 25 A 20.000237 20.000237 0 0 1 43.998047 25.03125 C 44.216112 25.223841 44.428791 25.418374 44.625 25.625 L 44.916016 25.916016 C 44.922738 25.902887 44.930837 25.888095 44.9375 25.875 L 45.25 25.25 L 44.625 24.625 C 44.428791 24.418374 44.216112 24.223841 43.998047 24.03125 A 20.000237 20.000237 0 0 0 44 24 A 20.000237 20.000237 0 0 0 24 4 A 20.000237 20.000237 0 0 0 18.470703 4.7890625 C 17.689332 3.6428903 17.06406 2.825012 16.8125 2.75 z M 4.7128906 30.148438 C 4.5798035 30.390901 4.4482618 30.634295 4.3125 30.875 L 4 31.5 L 4.4042969 31.708984 C 4.5666343 31.417253 4.7262531 31.123768 4.8886719 30.832031 A 20.000237 20.000237 0 0 1 4.7128906 30.148438 z"/>
 <path style="fill:#f4f4f7;fill-rule:evenodd" d="M 43.453125 28.556641 C 40.428188 32.158266 34.967624 34.120524 28.833984 35.011719 C 22.183462 35.977998 14.288278 35.698006 7.390625 35.115234 A 20.000237 20.000237 0 0 0 8.4433594 36.556641 C 15.084504 37.07736 22.573351 37.285368 29.027344 36.347656 C 34.225832 35.592338 39.215564 34.089101 42.582031 31.349609 A 20.000237 20.000237 0 0 0 43.453125 28.556641 z"/>
</svg>

<svg xmlns="http://www.w3.org/2000/svg" width="48" height="48" version="1"><path style="opacity:.2" d="M16.813 3.75c-.31 1.014-.645 2.02-.985 3.023A20 20 0 0 0 4 25a20 20 0 0 0 .889 5.832c-.194.347-.382.697-.577 1.043L4 32.5l.482.248c.325.15.76.265 1.27.377A20 20 0 0 0 24 45a20 20 0 0 0 19.57-15.9 15.729 15.729 0 0 0 1.367-2.225l.313-.625-.625-.625a9.86 9.86 0 0 0-.627-.594A20 20 0 0 0 44 25 20 20 0 0 0 24 5a20 20 0 0 0-5.53.79c-.78-1.147-1.406-1.965-1.657-2.04z"/><path style="fill:#4c5263" d="M44 24c0 2.197-.354 4.31-1.008 6.288-2.636 7.965-9.895 8.688-18.745 8.688-6.666 0-12.817 1.763-16.451-3.25A19.91 19.91 0 0 1 4 24C4 12.954 12.954 4 24 4s20 8.954 20 20z"/><path style="fill:#4c5263;fill-rule:evenodd" d="M16.813 2.75c-3.01 9.831-7.459 19.187-12.5 28.125L4 31.5l.482.249c.423.196.98.328 1.733.479.754.15 1.681.3 2.723.45 2.084.297 4.624.588 7.09.844 4.929.512 9.556.886 9.556.886l.788.063-.06-.788S25.09 17.8 24.861 15.19l-.012-.141-.068-.125c-1.445-2.307-7.058-11.901-7.97-12.173zm.625 2.813c2.133 3.753 3.977 5.882 6.25 10 .227 2.624 1.12 16.174 1.216 17.426-.675-.055-4.234-.341-8.738-.809-2.455-.255-4.984-.545-7.037-.838a50.567 50.567 0 0 1-2.649-.438c-.352-.07-.36-.275-.605-.341 3.682-6.506 9.531-16.709 11.563-25zM27.438 17.438l-.322 1.406c3.14 2.1 6.133 3.934 8.077 5.884 1.943 1.95 2.854 3.87 2.115 6.557l-.344 1.254 1.224-.44c3.823-1.376 5.64-4.042 6.75-6.224l.312-.625-.625-.625c-1.863-1.962-4.741-3.263-8.081-4.447-3.34-1.184-6.977-2.227-9.106-2.74zm3.73 2.484c1.554.427 3.247.933 4.925 1.528 3.044 1.08 5.926 2.467 7.554 3.967-.93 1.717-2.351 3.697-4.8 4.928.262-2.569-.87-4.734-2.699-6.569-1.35-1.354-3.112-2.602-4.98-3.854z"/><circle style="fill:#500000;fill-opacity:0" cx="24.024" cy="23.977" r="20.024"/><path style="fill:#00caff" d="M42.71 30.572c-4.037 2.865-8.806 4.603-13.683 5.352-6.796.959-13.719.72-20.539.199-.05.118-.082.234-.119.35a20 20 0 0 0 15.434 7.517c.172 0 .348.002.517-.002a20 20 0 0 0 .578-.02c.274-.012.54-.03.803-.052a20 20 0 0 0 1.479-.18c.094-.015.197-.026.289-.043a20 20 0 0 0 15.326-12.93c-.03-.063-.051-.127-.084-.19z"/><path style="opacity:.2;fill-rule:evenodd" d="M17.438 6.563c-2.032 8.292-7.88 18.495-11.563 25l3.254.78c2.053.293 4.584.585 7.039.84 4.503.467 8.095.825 8.77.88-.097-1.252-1.024-14.874-1.25-17.5-2.273-4.118-4.117-6.246-6.25-10zm7.812 10.625c3.012 6.205 3.015 12.344 1.25 16.875 2.485.015 6.54.294 10.938-1.875-3.615-8.253-12.188-15-12.188-15zm5.938 3.75c1.869 1.253 3.65 2.396 5 3.75 1.828 1.835 2.762 4.306 2.5 6.875 2.449-1.23 4.068-3.283 5-5-1.63-1.5-4.457-2.983-7.5-4.062a74.176 74.176 0 0 0-5-1.563zm12.265 8.62c-3.025 3.601-8.485 5.563-14.619 6.455-6.65.966-14.546.686-21.443.103a20 20 0 0 0 1.052 1.442c6.642.52 14.13.728 20.584-.21 5.199-.755 10.189-2.258 13.555-4.997a20 20 0 0 0 .871-2.793z"/><path style="fill:#f4f4f7;fill-rule:evenodd" d="M25.25 16.188c3.012 6.205 3.015 12.343 1.25 16.875 2.485.015 6.54.294 10.938-1.875-3.615-8.253-12.188-15-12.188-15zM17.438 5.563c-2.032 8.29-7.88 18.494-11.563 25l3.255.78c2.053.293 4.582.583 7.037.838 4.503.468 8.096.827 8.77.882-.096-1.253-1.022-14.875-1.25-17.5-2.272-4.118-4.116-6.247-6.25-10zM31.188 19.938c1.869 1.252 3.65 2.395 5 3.75 1.828 1.834 2.762 4.306 2.5 6.875 2.45-1.231 4.069-3.283 5-5-1.629-1.5-4.456-2.984-7.5-4.063a74.178 74.178 0 0 0-5-1.562z"/><path style="fill:#f4f4f7;opacity:.1" d="M16.813 2.75c-.31 1.014-.645 2.02-.985 3.023A20 20 0 0 0 4 24a20 20 0 0 0 .018.332 20 20 0 0 1 11.81-17.559c.34-1.003.674-2.009.985-3.023.251.075.876.893 1.658 2.04A20 20 0 0 1 24 5a20 20 0 0 1 20 20 20 20 0 0 1-.002.031c.218.193.43.387.627.594l.291.291.022-.041.312-.625-.625-.625a9.86 9.86 0 0 0-.627-.594A20 20 0 0 0 44 24 20 20 0 0 0 24 4a20 20 0 0 0-5.53.79c-.78-1.147-1.406-1.965-1.657-2.04zm-12.1 27.398c-.133.243-.265.486-.4.727L4 31.5l.404.209c.163-.292.322-.585.485-.877a20 20 0 0 1-.176-.684z"/><path style="fill:#f4f4f7;fill-rule:evenodd" d="M43.453 28.557c-3.025 3.601-8.485 5.564-14.619 6.455-6.65.966-14.546.686-21.443.103a20 20 0 0 0 1.052 1.442c6.642.52 14.13.728 20.584-.21 5.199-.755 10.189-2.258 13.555-4.997a20 20 0 0 0 .871-2.793z"/></svg>
